resources/svg/accessibility.svg

<svg xmlns="http://www.w3.org/2000/svg" viewBox="0 0 12 14" fill="currentColor"><path d="M5.90040404,10.0156183 L5.57640804,13.1030489 C5.51867857,13.653166 5.02661696,14.0522519 4.47735768,13.9944323 C3.92809841,13.9366127 3.52963478,13.4437825 3.58736425,12.8936654 L4.30980443,6.00937098 L1,6.00937098 C0.44771525,6.00937098 0,5.56095647 0,5.00780915 C0,4.45466182 0.44771525,4.00624732 1,4.00624732 L11,4.00624732 C11.5522847,4.00624732 12,4.45466182 12,5.00780915 C12,5.56095647 11.5522847,6.00937098 11,6.00937098 L7.69019557,6.00937098 L8.41263575,12.8936654 C8.47036522,13.4437825 8.07190159,13.9366127 7.52264232,13.9944323 C6.97338304,14.0522519 6.48132143,13.653166 6.42359196,13.1030489 L6.09959596,10.0156183 L5.90040404,10.0156183 Z M6,4.00624732 C4.8954305,4.00624732 4,3.10941831 4,2.00312366 C4,0.89682901 4.8954305,0 6,0 C7.1045695,0 8,0.89682901 8,2.00312366 C8,3.10941831 7.1045695,4.00624732 6,4.00624732 Z"/></svg>

<svg xmlns="http://www.w3.org/2000/svg" fill="currentColor" viewBox="0 0 12 14"><path d="m5.9 10.016-.324 3.087a1 1 0 1 1-1.989-.21L4.31 6.01H1a1 1 0 0 1 0-2.003h10a1 1 0 0 1 0 2.003H7.69l.723 6.885a1.001 1.001 0 1 1-1.99.209L6.1 10.016h-.2Zm.1-6.01c-1.105 0-2-.897-2-2.003S4.895 0 6 0s2 .897 2 2.003a2.002 2.002 0 0 1-2 2.003Z"/></svg>
